assets/img/home/missao-2.svg

<svg xmlns="http://www.w3.org/2000/svg" xmlns:xlink="http://www.w3.org/1999/xlink" width="1080" zoomAndPan="magnify" viewBox="0 0 810 809.999993" height="1080" preserveAspectRatio="xMidYMid meet" version="1.0"><defs><clipPath id="b2a46d7019"><path d="M 207.03125 375 L 608 375 L 608 615.714844 L 207.03125 615.714844 Z M 207.03125 375 " clip-rule="nonzero"/></clipPath><clipPath id="1ede00b0fd"><path d="M 527.136719 339 L 800.066406 339 L 800.066406 532 L 527.136719 532 Z M 527.136719 339 " clip-rule="nonzero"/></clipPath></defs><path fill="#f1ae2b" d="M 292.144531 265.558594 C 292.144531 201.859375 343.785156 150.222656 407.480469 150.222656 C 471.179688 150.222656 522.824219 201.859375 522.824219 265.558594 C 522.824219 329.261719 471.179688 380.902344 407.480469 380.902344 C 343.785156 380.902344 292.144531 329.261719 292.144531 265.558594 " fill-opacity="1" fill-rule="nonzero"/><g clip-path="url(#b2a46d7019)"><path fill="#f1ae2b" d="M 605.710938 552.648438 L 589.265625 489.25 C 575.855469 437.59375 539.679688 396.617188 493.171875 375.933594 C 469.507812 394.335938 439.789062 405.324219 407.480469 405.324219 C 375.179688 405.324219 345.460938 394.335938 321.789062 375.933594 C 275.28125 396.617188 239.105469 437.59375 225.699219 489.25 L 209.257812 552.648438 C 200.972656 584.5625 225.066406 615.707031 258.046875 615.707031 L 556.921875 615.707031 C 589.898438 615.707031 613.996094 584.5625 605.710938 552.648438 " fill-opacity="1" fill-rule="nonzero"/></g><path fill="#f1ae2b" d="M 82.628906 250.789062 C 82.628906 199.804688 123.964844 158.46875 174.949219 158.46875 C 225.933594 158.46875 267.269531 199.804688 267.269531 250.789062 C 267.269531 301.773438 225.933594 343.109375 174.949219 343.109375 C 123.964844 343.109375 82.628906 301.773438 82.628906 250.789062 " fill-opacity="1" fill-rule="nonzero"/><path fill="#f1ae2b" d="M 204.546875 488.398438 C 217.371094 438.984375 247.949219 397.90625 288.378906 371.265625 C 275.78125 357.667969 260.53125 346.6875 243.535156 339.128906 C 224.589844 353.863281 200.800781 362.660156 174.949219 362.660156 C 149.089844 362.660156 125.300781 353.863281 106.355469 339.128906 C 69.132812 355.683594 40.179688 388.484375 29.449219 429.832031 L 16.28125 480.574219 C 9.652344 506.125 28.941406 531.054688 55.332031 531.054688 L 193.480469 531.054688 L 204.546875 488.398438 " fill-opacity="1" fill-rule="nonzero"/><path fill="#f1ae2b" d="M 732.902344 250.789062 C 732.902344 199.804688 691.566406 158.46875 640.582031 158.46875 C 589.59375 158.46875 548.261719 199.804688 548.261719 250.789062 C 548.261719 301.773438 589.59375 343.109375 640.582031 343.109375 C 691.566406 343.109375 732.902344 301.773438 732.902344 250.789062 " fill-opacity="1" fill-rule="nonzero"/><g clip-path="url(#1ede00b0fd)"><path fill="#f1ae2b" d="M 610.976562 488.398438 C 598.160156 438.984375 567.582031 397.90625 527.152344 371.265625 C 539.75 357.667969 554.996094 346.6875 571.996094 339.128906 C 590.941406 353.863281 614.722656 362.660156 640.582031 362.660156 C 666.441406 362.660156 690.222656 353.863281 709.175781 339.128906 C 746.398438 355.683594 775.351562 388.484375 786.082031 429.832031 L 799.25 480.574219 C 805.878906 506.125 786.589844 531.054688 760.191406 531.054688 L 622.050781 531.054688 L 610.976562 488.398438 " fill-opacity="1" fill-rule="nonzero"/></g></svg>

<svg xmlns="http://www.w3.org/2000/svg" width="1080" height="1080" version="1.0" viewBox="0 0 810 810">
  <defs>
    <clipPath id="a">
      <path d="M207.031 375H608v240.715H207.031Zm0 0"/>
    </clipPath>
    <clipPath id="b">
      <path d="M527.137 339h272.93v193h-272.93Zm0 0"/>
    </clipPath>
  </defs>
  <path fill="#f1ae2b" d="M292.145 265.559c0-63.7 51.64-115.336 115.335-115.336 63.7 0 115.344 51.636 115.344 115.336 0 63.703-51.644 115.343-115.344 115.343-63.695 0-115.335-51.64-115.335-115.343"/>
  <g clip-path="url(#a)">
    <path fill="#f1ae2b" d="m605.71 552.648-16.444-63.398c-13.41-51.656-49.586-92.633-96.094-113.316-23.664 18.402-53.383 29.39-85.692 29.39-32.3 0-62.02-10.988-85.69-29.39-46.509 20.683-82.685 61.66-96.09 113.316l-16.442 63.398c-8.285 31.914 15.808 63.059 48.789 63.059h298.875c32.976 0 57.074-31.144 48.789-63.059"/>
  </g>
  <path fill="#f1ae2b" d="M82.629 250.79c0-50.985 41.336-92.321 92.32-92.321 50.985 0 92.32 41.336 92.32 92.32 0 50.984-41.335 92.32-92.32 92.32-50.984 0-92.32-41.336-92.32-92.32"/>
  <path fill="#f1ae2b" d="M204.547 488.398c12.824-49.414 43.402-90.492 83.832-117.132-12.598-13.598-27.848-24.579-44.844-32.137-18.945 14.734-42.734 23.531-68.586 23.531-25.86 0-49.648-8.797-68.594-23.531-37.222 16.555-66.175 49.355-76.906 90.703l-13.168 50.742c-6.629 25.551 12.66 50.48 39.051 50.48H193.48l11.067-42.656M732.902 250.79c0-50.985-41.336-92.321-92.32-92.321-50.988 0-92.32 41.336-92.32 92.32 0 50.984 41.332 92.32 92.32 92.32 50.984 0 92.32-41.336 92.32-92.32"/>
  <g clip-path="url(#b)">
    <path fill="#f1ae2b" d="M610.977 488.398c-12.817-49.414-43.395-90.492-83.825-117.132 12.598-13.598 27.844-24.579 44.844-32.137 18.945 14.734 42.727 23.531 68.586 23.531 25.86 0 49.64-8.797 68.594-23.531 37.222 16.555 66.176 49.355 76.906 90.703l13.168 50.742c6.629 25.551-12.66 50.48-39.059 50.48h-138.14l-11.074-42.656"/>
  </g>
</svg>
